X:149
T: Das alt Chatholisch Triersch Christ liedlein
N: A0515
O: Europa, Mitteleuropa, Deutschland
N: Speiersches Gsgb. 1600 fol. 29.
R: Romanze, Ballade, Lied, religioeses Lied
M: 4/2
L: 1/2
K: F
c2 | ccdc | c2A2 |
B2 | AG2F2E | F2
c2 | ccdc | c2A2 |
B2 | AG2F2E | F2z
A | GEFD | C2z
c | ccdc | c2A2B2 | AG2F2E | F4

@@@ Tune index: 462
